communes/389.svg

<?xml version="1.0" encoding="UTF-8" standalone="no"?>
<svg
   xmlns:dc="http://purl.org/dc/elements/1.1/"
   xmlns:cc="http://web.resource.org/cc/"
   xmlns:rdf="http://www.w3.org/1999/02/22-rdf-syntax-ns#"
   xmlns:svg="http://www.w3.org/2000/svg"
   xmlns="http://www.w3.org/2000/svg"
   xmlns:xlink="http://www.w3.org/1999/xlink"
   xmlns:sodipodi="http://sodipodi.sourceforge.net/DTD/sodipodi-0.dtd"
   xmlns:inkscape="http://www.inkscape.org/namespaces/inkscape"
   height="763"
   width="603"
   version="1.0"
   id="svg20"
   sodipodi:version="0.32"
   inkscape:version="0.44.1"
   sodipodi:docname="Meienried-coat of arms.svg"
   sodipodi:docbase="F:\Mis Documentos\Mis imágenes\Encyclopédie\Escudos de Suiza">
  <metadata
     id="metadata31">
    <rdf:RDF>
      <cc:Work
         rdf:about="">
        <dc:format>image/svg+xml</dc:format>
        <dc:type
           rdf:resource="http://purl.org/dc/dcmitype/StillImage" />
        <dc:date>07-AUG-2006</dc:date>
        <dc:creator>
          <cc:Agent>
            <dc:title>Jérôme BLUM (wagner51)</dc:title>
          </cc:Agent>
        </dc:creator>
        <cc:license
           rdf:resource="http://creativecommons.org/licenses/GPL/2.0/" />
        <dc:coverage />
        <dc:description>Gabarit pour le Projet:Blasons de WIkipédia</dc:description>
        <dc:subject>
          <rdf:Bag>
            <rdf:li>blason suisse modèle gabarit projet blasons</rdf:li>
          </rdf:Bag>
        </dc:subject>
        <dc:language>fr</dc:language>
        <dc:title>Gabrit d'un blason suisse</dc:title>
      </cc:Work>
      <cc:License
         rdf:about="http://creativecommons.org/licenses/GPL/2.0/">
        <cc:permits
           rdf:resource="http://web.resource.org/cc/Reproduction" />
        <cc:permits
           rdf:resource="http://web.resource.org/cc/Distribution" />
        <cc:requires
           rdf:resource="http://web.resource.org/cc/Notice" />
        <cc:permits
           rdf:resource="http://web.resource.org/cc/DerivativeWorks" />
        <cc:requires
           rdf:resource="http://web.resource.org/cc/ShareAlike" />
        <cc:requires
           rdf:resource="http://web.resource.org/cc/SourceCode" />
      </cc:License>
    </rdf:RDF>
  </metadata>
  <defs
     id="defs29">
    <linearGradient
       id="linearGradient2893">
      <stop
         style="stop-color:#ffffff;stop-opacity:0.3137255;"
         offset="0"
         id="stop2895" />
      <stop
         id="stop2897"
         offset="0.19"
         style="stop-color:#ffffff;stop-opacity:0.25098041;" />
      <stop
         style="stop-color:#6b6b6b;stop-opacity:0.1254902;"
         offset="0.60000002"
         id="stop2901" />
      <stop
         style="stop-color:#000000;stop-opacity:0.1254902;"
         offset="1"
         id="stop2899" />
    </linearGradient>
    <linearGradient
       id="linearGradient2955">
      <stop
         style="stop-color:white;stop-opacity:0;"
         offset="0"
         id="stop2965" />
      <stop
         style="stop-color:black;stop-opacity:0.64583331;"
         offset="1"
         id="stop2959" />
    </linearGradient>
    <radialGradient
       inkscape:collect="always"
       xlink:href="#linearGradient2893"
       id="radialGradient3236"
       gradientUnits="userSpaceOnUse"
       gradientTransform="matrix(1.215027,1.531577e-24,1.464684e-23,1.266667,-839.1924,-490.4894)"
       cx="858.04236"
       cy="579.93323"
       fx="858.04236"
       fy="579.93323"
       r="300" />
    <marker
       inkscape:r_cy="true"
       inkscape:r_cx="true"
       style="overflow:visible"
       id="Arrow1Lstart"
       refX="0"
       refY="0"
       orient="auto"
       inkscape:stockid="Arrow1Lstart">
      <path
         inkscape:r_cy="true"
         inkscape:r_cx="true"
         transform="scale(0.8,0.8)"
         style="fill-rule:evenodd;stroke:#000000;stroke-width:1pt;marker-start:none"
         d="M 0,0 L 5,-5 L -12.5,0 L 5,5 L 0,0 z "
         id="path12217" />
    </marker>
    <marker
       inkscape:r_cy="true"
       inkscape:r_cx="true"
       style="overflow:visible"
       id="Arrow2Send"
       refX="0"
       refY="0"
       orient="auto"
       inkscape:stockid="Arrow2Send">
      <path
         inkscape:r_cy="true"
         inkscape:r_cx="true"
         transform="matrix(-0.3,0,0,-0.3,1.5,0)"
         d="M 8.7185878,4.0337352 L -2.2072895,0.016013256 L 8.7185884,-4.0017078 C 6.97309,-1.6296469 6.9831476,1.6157441 8.7185878,4.0337352 z "
         style="font-size:12px;fill-rule:evenodd;stroke-width:0.625;stroke-linejoin:round"
         id="path12184" />
    </marker>
    <marker
       inkscape:r_cy="true"
       inkscape:r_cx="true"
       style="overflow:visible"
       id="Dot_l"
       refX="0"
       refY="0"
       orient="auto"
       inkscape:stockid="Dot_l">
      <path
         inkscape:r_cy="true"
         inkscape:r_cx="true"
         transform="matrix(0.8,0,0,0.8,5.700394,0.8)"
         style="fill-rule:evenodd;stroke:#000000;stroke-width:1pt;marker-start:none;marker-end:none"
         d="M -2.5,-1 C -2.5,1.76 -4.74,4 -7.5,4 C -10.26,4 -12.5,1.76 -12.5,-1 C -12.5,-3.76 -10.26,-6 -7.5,-6 C -4.74,-6 -2.5,-3.76 -2.5,-1 z "
         id="path12152" />
    </marker>
  </defs>
  <sodipodi:namedview
     inkscape:window-height="682"
     inkscape:window-width="1024"
     inkscape:pageshadow="2"
     inkscape:pageopacity="0.0"
     guidetolerance="10.0"
     gridtolerance="10.0"
     objecttolerance="10.0"
     borderopacity="1.0"
     bordercolor="#666666"
     pagecolor="#ffffff"
     id="base"
     inkscape:zoom="0.34154592"
     inkscape:cx="464.93349"
     inkscape:cy="466.71185"
     inkscape:window-x="-4"
     inkscape:window-y="-4"
     inkscape:current-layer="layer2"
     showgrid="true" />
  <desc
     id="desc22">Coat of Arms of Canton of Freiburg (Fribourg)</desc>
  <g
     inkscape:groupmode="layer"
     id="layer1"
     inkscape:label="Fond écu"
     sodipodi:insensitive="true">
    <path
       id="path1899"
       d="M 1.5,1.49998 L 1.5,460.3679 C 1.5,626.6785 135.81456,761.5 301.49999,761.5 C 467.18543,761.5 601.5,626.6785 601.5,460.3679 L 601.5,1.49998 L 1.5,1.49998 z "
       style="fill:#5ab532;fill-opacity:1" />
  </g>
  <g
     inkscape:groupmode="layer"
     id="layer2"
     inkscape:label="Meubles"
     sodipodi:insensitive="true">
    <rect
       style="opacity:1;fill:white;fill-opacity:1;fill-rule:evenodd;stroke:black;stroke-width:3.51000404;stroke-linecap:square;stroke-linejoin:miter;stroke-miterlimit:4;stroke-dasharray:none;stroke-opacity:1"
       id="rect5581"
       width="599.48999"
       height="269.48999"
       x="1.755002"
       y="1.7550021" />
    <g
       id="g5564"
       transform="matrix(1.064131,0,0,1.064131,-2.380358,6.535569)">
      <path
         transform="matrix(0.27933,0,0,0.27933,150.9218,5.105689)"
         inkscape:r_cy="true"
         inkscape:r_cx="true"
         d="M 530 390 A 50 50 0 1 1  430,390 A 50 50 0 1 1  530 390 z"
         sodipodi:ry="50"
         sodipodi:rx="50"
         sodipodi:cy="390"
         sodipodi:cx="480"
         id="path6793"
         style="fill:none;fill-opacity:1;stroke:#333;stroke-width:1;stroke-linecap:round;stroke-linejoin:round;stroke-miterlimit:4;stroke-dasharray:none;stroke-opacity:1"
         sodipodi:type="arc" />
      <path
         transform="matrix(0.27933,0,0,0.27933,150.9218,5.105689)"
         inkscape:r_cy="true"
         inkscape:r_cx="true"
         d="M 775 390 A 295 295 0 1 1  185,390 A 295 295 0 1 1  775 390 z"
         sodipodi:ry="295"
         sodipodi:rx="295"
         sodipodi:cy="390"
         sodipodi:cx="480"
         id="path7668"
         style="fill:none;fill-opacity:1;stroke:#333;stroke-width:1;stroke-linecap:round;stroke-linejoin:round;stroke-miterlimit:4;stroke-dasharray:none;stroke-opacity:1"
         sodipodi:type="arc" />
      <path
         inkscape:r_cy="true"
         inkscape:r_cx="true"
         sodipodi:nodetypes="cccccc"
         id="sepales"
         d="M 358.54129,7.5748428 C 350.34968,63.078893 362.10137,111.93538 406.50873,149.90698 C 341.1451,153.44912 306.00223,188.58472 285.96144,239.50838 C 262.11485,185.78657 223.45761,153.64532 163.49167,152.55295 C 221.77683,109.58663 223.94708,60.385515 208.34849,9.210145 C 255.68283,36.41842 305.02811,43.182751 358.54129,7.5748428 z "
         style="fill:#5ab532;fill-opacity:1;stroke:black;stroke-width:3;stroke-linecap:round;stroke-linejoin:miter;marker-start:none;stroke-miterlimit:4;stroke-dasharray:none;stroke-opacity:1" />
      <path
         sodipodi:nodetypes="cscc"
         id="petale1"
         d="M 330.62643,53.54714 C 321.76495,66.222588 287.15429,115.49832 285.98779,113.98708 C 282.9119,110.00217 252.0423,65.340257 242.92926,50.781912 C 225.75953,-7.4341717 346.84216,-6.1207725 330.62643,53.54714 z "
         style="fill:#e20909;fill-opacity:1;stroke:black;stroke-width:3;stroke-linecap:round;stroke-linejoin:miter;stroke-miterlimit:4;stroke-dasharray:none;stroke-opacity:1"
         inkscape:r_cx="true"
         inkscape:r_cy="true" />
      <path
         inkscape:r_cy="true"
         inkscape:r_cx="true"
         style="fill:#e20909;fill-opacity:1;stroke:black;stroke-width:3;stroke-linecap:round;stroke-linejoin:miter;stroke-miterlimit:4;stroke-dasharray:none;stroke-opacity:1"
         d="M 350.89014,134.21848 C 336.02242,129.68498 283.55453,115.74043 284.63134,114.16402 C 287.47072,110.00727 320.40751,66.847228 331.43724,53.681439 C 383.79724,18.39472 412.22109,134.20069 350.89014,134.21848 z "
         id="petale2"
         sodipodi:nodetypes="cscc" />
      <path
         sodipodi:nodetypes="cscc"
         id="petale3"
         d="M 286.46062,184.78579 C 286.17927,169.32248 285.01437,111.13473 286.84638,111.6717 C 291.67709,113.0876 338.95246,129.49505 354.88225,135.9165 C 404.80269,173.36124 308.46149,245.36852 286.46062,184.78579 z "
         style="fill:#e20909;fill-opacity:1;stroke:black;stroke-width:3;stroke-linecap:round;stroke-linejoin:miter;stroke-miterlimit:4;stroke-dasharray:none;stroke-opacity:1"
         inkscape:r_cx="true"
         inkscape:r_cy="true" />
      <path
         inkscape:r_cy="true"
         inkscape:r_cx="true"
         style="fill:#e20909;fill-opacity:1;stroke:black;stroke-width:3;stroke-linecap:round;stroke-linejoin:miter;stroke-miterlimit:4;stroke-dasharray:none;stroke-opacity:1"
         d="M 213.13733,138.94414 C 227.75688,133.89813 286.2591,111.58796 286.31453,113.49624 C 286.4607,118.52807 287.55329,167.27464 286.3687,184.40911 C 268.15507,245.03258 164.7401,178.15029 213.13733,138.94414 z "
         id="petale4"
         sodipodi:nodetypes="cscc" />
      <path
         sodipodi:nodetypes="cscc"
         id="petale5"
         d="M 241.2036,51.888847 C 250.52033,64.233571 287.44656,113.76836 285.64881,114.41077 C 280.90842,116.1047 232.84341,133.24228 216.18149,137.41051 C 155.18732,137.9019 187.65031,18.557568 241.2036,51.888847 z "
         style="fill:#e20909;fill-opacity:1;stroke:black;stroke-width:3;stroke-linecap:round;stroke-linejoin:miter;stroke-miterlimit:4;stroke-dasharray:none;stroke-opacity:1"
         inkscape:r_cx="true"
         inkscape:r_cy="true" />
      <path
         sodipodi:nodetypes="czzzzzzzzzzc"
         id="path2244"
         d="M 206.7878,86.29587 C 206.7878,87.41319 279.04386,112.97182 282.39582,110.45785 C 285.46845,107.94388 285.83819,31.26786 285.0002,31.26786 C 284.16221,31.26786 286.96375,106.1529 289.47772,108.9462 C 291.99169,112.01883 363.49193,89.08917 363.2126,88.25118 C 362.93327,87.41319 292.32035,110.88515 290.9237,114.23711 C 289.80638,117.58907 333.04496,179.59209 333.88295,179.03343 C 334.72094,178.47477 291.77804,118.75572 287.58809,119.03505 C 284.09647,119.03505 235.27946,178.19544 235.83812,179.03343 C 236.67611,179.59209 282.78191,120.0948 281.38526,116.74284 C 280.26794,113.39088 207.90512,84.89922 207.34646,86.29587 L 206.7878,86.29587 z "
         style="fill:#e20909;fill-opacity:1;stroke:black;stroke-width:2.79329991;stroke-linecap:round;stroke-linejoin:round;stroke-miterlimit:4;stroke-dasharray:none;stroke-opacity:1"
         inkscape:r_cx="true"
         inkscape:r_cy="true" />
      <path
         transform="matrix(0.251397,0,0,0.251397,164.3296,15.99956)"
         inkscape:r_cy="true"
         inkscape:r_cx="true"
         d="M 617 390 A 137 137 0 1 1  343,390 A 137 137 0 1 1  617 390 z"
         sodipodi:ry="137"
         sodipodi:rx="137"
         sodipodi:cy="390"
         sodipodi:cx="480"
         id="path1365"
         style="fill:#fcef3c;fill-opacity:1;stroke:black;stroke-width:15.91108894;stroke-linecap:butt;stroke-miterlimit:4;stroke-dasharray:none;stroke-opacity:1"
         sodipodi:type="arc" />
      <path
         style="fill:none;fill-opacity:0.75;fill-rule:evenodd;stroke:black;stroke-width:2.23463988;stroke-linecap:round;stroke-linejoin:miter;stroke-miterlimit:4;stroke-dasharray:none;stroke-opacity:1"
         d="M 252.65768,37.643523 C 254.26641,31.611195 259.66469,24.77219 265.83616,25.146397 C 271.63151,25.497797 277.34748,30.245266 285.09053,30.358721 C 292.83358,30.472176 299.23001,23.489511 310.43219,27.156439 C 317.08226,29.333278 318.03842,33.630632 319.96859,39.235684"
         id="path3105"
         inkscape:r_cx="true"
         inkscape:r_cy="true"
         sodipodi:nodetypes="cszsc" />
      <path
         sodipodi:nodetypes="cszsc"
         inkscape:r_cy="true"
         inkscape:r_cx="true"
         id="path1348"
         d="M 348.96367,57.27138 C 355.49911,58.26097 359.28999,63.099008 361.97307,70.461038 C 363.96114,75.916048 361.29538,81.035843 363.58021,88.434985 C 365.86505,95.834126 367.55624,94.966156 370.83903,103.07594 C 372.86414,108.07877 371.6348,111.7037 368.0292,118.93962"
         style="fill:none;fill-opacity:0.75;fill-rule:evenodd;stroke:black;stroke-width:2.23464108;stroke-linecap:round;stroke-linejoin:miter;stroke-miterlimit:4;stroke-dasharray:none;stroke-opacity:1" />
      <path
         sodipodi:nodetypes="cszsc"
         inkscape:r_cy="true"
         inkscape:r_cx="true"
         id="path1350"
         d="M 357.96514,152.82871 C 359.00909,157.64196 359.11197,165.86673 351.77016,171.8333 C 345.9636,176.55219 340.43753,174.91005 334.10658,179.36951 C 327.77563,183.82898 325.96489,190.17856 319.01594,193.53428 C 312.31454,196.77045 307.18584,194.96916 302.32973,191.5691"
         style="fill:none;fill-opacity:0.75;fill-rule:evenodd;stroke:black;stroke-width:2.23463988;stroke-linecap:round;stroke-linejoin:miter;stroke-miterlimit:4;stroke-dasharray:none;stroke-opacity:1" />
      <path
         sodipodi:nodetypes="cszsc"
         inkscape:r_cy="true"
         inkscape:r_cx="true"
         id="path1352"
         d="M 267.79532,193.92657 C 262.13415,196.29329 256.69029,197.27194 251.91742,193.34171 C 247.43544,189.651 242.29305,184.24353 236.09548,179.60049 C 229.8979,174.95745 225.45124,176.67977 218.26013,169.37359 C 214.47417,165.52704 214.40191,158.26932 216.13494,152.60021"
         style="fill:none;fill-opacity:0.75;fill-rule:evenodd;stroke:black;stroke-width:2.23463988;stroke-linecap:round;stroke-linejoin:miter;stroke-miterlimit:4;stroke-dasharray:none;stroke-opacity:1" />
      <path
         sodipodi:nodetypes="cszsc"
         inkscape:r_cy="true"
         inkscape:r_cx="true"
         id="path1354"
         d="M 204.07875,121.64556 C 200.07847,116.99283 194.741,113.25293 197.84197,102.75054 C 199.4861,97.182204 204.00479,93.557506 206.50543,86.228487 C 209.00607,78.899466 206.95129,73.457439 211.43197,66.216563 C 215.14851,60.21054 220.41128,58.949927 226.33846,58.846278"
         style="fill:none;fill-opacity:0.75;fill-rule:evenodd;stroke:black;stroke-width:2.23463988;stroke-linecap:round;stroke-linejoin:miter;stroke-miterlimit:4;stroke-dasharray:none;stroke-opacity:1" />
    </g>
  </g>
  <g
     inkscape:groupmode="layer"
     id="layer3"
     inkscape:label="Reflet final"
     style="display:inline"
     sodipodi:insensitive="true">
    <path
       style="fill:url(#radialGradient3236);fill-opacity:1"
       d="M 1.5,1.5 L 1.5,460.3679 C 1.5,626.67854 135.81454,761.5 301.49993,761.5 C 467.1854,761.5 601.5,626.67854 601.5,460.3679 L 601.5,1.5 L 1.5,1.5 z "
       id="path2346" />
  </g>
  <g
     inkscape:groupmode="layer"
     id="layer4"
     inkscape:label="Contour final"
     style="display:inline"
     sodipodi:insensitive="true">
    <path
       style="fill:none;fill-opacity:1;stroke:#000000;stroke-width:3;stroke-miterlimit:4;stroke-dasharray:none;stroke-opacity:1"
       d="M 1.5,1.5 L 1.5,460.36794 C 1.5,626.67854 135.81454,761.5 301.49993,761.5 C 467.1854,761.5 601.5,626.67854 601.5,460.36794 L 601.5,1.5 L 1.5,1.5 z "
       id="path3239" />
  </g>
</svg>

<?xml version="1.0" encoding="UTF-8"?>
<svg version="1.0" viewBox="0 0 603 763" xmlns="http://www.w3.org/2000/svg" xmlns:cc="http://web.resource.org/cc/" xmlns:dc="http://purl.org/dc/elements/1.1/" xmlns:rdf="http://www.w3.org/1999/02/22-rdf-syntax-ns#" xmlns:xlink="http://www.w3.org/1999/xlink">
<metadata>
<rdf:RDF>
<cc:Work rdf:about="">
<dc:format>image/svg+xml</dc:format>
<dc:type rdf:resource="http://purl.org/dc/dcmitype/StillImage"/>
<dc:date>07-AUG-2006</dc:date>
<dc:creator>
<cc:Agent>
<dc:title>Jérôme BLUM (wagner51)</dc:title>
</cc:Agent>
</dc:creator>
<cc:license rdf:resource="http://creativecommons.org/licenses/GPL/2.0/"/>
<dc:coverage/>
<dc:description>Gabarit pour le Projet:Blasons de WIkipédia</dc:description>
<dc:subject>
<rdf:Bag>
<rdf:li>blason suisse modèle gabarit projet blasons</rdf:li>
</rdf:Bag>
</dc:subject>
<dc:language>fr</dc:language>
<dc:title>Gabrit d'un blason suisse</dc:title>
</cc:Work>
<cc:License rdf:about="http://creativecommons.org/licenses/GPL/2.0/">
<cc:permits rdf:resource="http://web.resource.org/cc/Reproduction"/>
<cc:permits rdf:resource="http://web.resource.org/cc/Distribution"/>
<cc:requires rdf:resource="http://web.resource.org/cc/Notice"/>
<cc:permits rdf:resource="http://web.resource.org/cc/DerivativeWorks"/>
<cc:requires rdf:resource="http://web.resource.org/cc/ShareAlike"/>
<cc:requires rdf:resource="http://web.resource.org/cc/SourceCode"/>
</cc:License>
</rdf:RDF>
</metadata>
<defs>
<radialGradient id="a" cx="858.04" cy="579.93" r="300" gradientTransform="matrix(1.215 1.5316e-24 1.4647e-23 1.2667 -839.19 -490.49)" gradientUnits="userSpaceOnUse">
<stop stop-color="#fff" stop-opacity=".31373" offset="0"/>
<stop stop-color="#fff" stop-opacity=".25098" offset=".19"/>
<stop stop-color="#6b6b6b" stop-opacity=".12549" offset=".6"/>
<stop stop-opacity=".12549" offset="1"/>
</radialGradient>
</defs>
<desc>Coat of Arms of Canton of Freiburg (Fribourg)</desc>
<path d="m1.5 1.5v458.87c0 166.31 134.31 301.13 300 301.13 165.69 0 300-134.82 300-301.13v-458.87h-600z" fill="#5ab532"/>
<g>
<rect x="1.755" y="1.755" width="599.49" height="269.49" fill="#fff" fill-rule="evenodd" stroke="#000" stroke-linecap="square" stroke-width="3.51"/>
<g transform="matrix(1.0641 0 0 1.0641 -2.3804 6.5356)">
<path transform="matrix(.27933 0 0 .27933 150.92 5.1057)" d="m530 390a50 50 0 1 1-100 0 50 50 0 1 1 100 0z" fill="none" stroke="#333" stroke-linecap="round" stroke-linejoin="round"/>
<path transform="matrix(.27933 0 0 .27933 150.92 5.1057)" d="m775 390a295 295 0 1 1-590 0 295 295 0 1 1 590 0z" fill="none" stroke="#333" stroke-linecap="round" stroke-linejoin="round"/>
<path d="m358.54 7.5748c-8.1916 55.504 3.5601 104.36 47.967 142.33-65.364 3.5421-100.51 38.678-120.55 89.601-23.847-53.722-62.504-85.863-122.47-86.955 58.285-42.966 60.455-92.167 44.857-143.34 47.334 27.208 96.68 33.973 150.19-1.6353z" fill="#5ab532" stroke="#000" stroke-linecap="round" stroke-width="3"/>
<path d="m330.63 53.547c-8.8615 12.675-43.472 61.951-44.639 60.44-3.0759-3.9849-33.945-48.647-43.059-63.205-17.17-58.216 103.91-56.903 87.697 2.7652z" fill="#e20909" stroke="#000" stroke-linecap="round" stroke-width="3"/>
<path d="m350.89 134.22c-14.868-4.5335-67.336-18.478-66.259-20.054 2.8394-4.1568 35.776-47.317 46.806-60.483 52.36-35.287 80.784 80.519 19.453 80.537z" fill="#e20909" stroke="#000" stroke-linecap="round" stroke-width="3"/>
<path d="m286.46 184.79c-0.28135-15.463-1.4462-73.651 0.38576-73.114 4.8307 1.4159 52.106 17.823 68.036 24.245 49.92 37.445-46.421 109.45-68.422 48.869z" fill="#e20909" stroke="#000" stroke-linecap="round" stroke-width="3"/>
<path d="m213.14 138.94c14.62-5.046 73.122-27.356 73.177-25.448 0.14617 5.0318 1.2388 53.778 0.05417 70.913-18.214 60.623-121.63-6.2588-73.231-45.465z" fill="#e20909" stroke="#000" stroke-linecap="round" stroke-width="3"/>
<path d="m241.2 51.889c9.3167 12.345 46.243 61.88 44.445 62.522-4.7404 1.6939-52.805 18.832-69.467 23-60.994 0.49139-28.531-118.85 25.022-85.522z" fill="#e20909" stroke="#000" stroke-linecap="round" stroke-width="3"/>
<path d="m206.79 86.296c0 1.1173 72.256 26.676 75.608 24.162 3.0726-2.514 3.4424-79.19 2.6044-79.19s1.9636 74.885 4.4775 77.678c2.514 3.0726 74.014-19.857 73.735-20.695s-70.892 22.634-72.289 25.986c-1.1173 3.352 42.121 65.355 42.959 64.796s-42.105-60.278-46.295-59.998c-3.4916 0-52.309 59.16-51.75 59.998 0.83799 0.55866 46.944-58.939 45.547-62.291-1.1173-3.352-73.48-31.844-74.039-30.447h-0.55866z" fill="#e20909" stroke="#000" stroke-linecap="round" stroke-linejoin="round" stroke-width="2.7933"/>
<path transform="matrix(.2514 0 0 .2514 164.33 16)" d="m617 390a137 137 0 1 1-274 0 137 137 0 1 1 274 0z" fill="#fcef3c" stroke="#000" stroke-width="15.911"/>
<path d="m252.66 37.644c1.6087-6.0323 7.007-12.871 13.178-12.497 5.7954 0.3514 11.511 5.0989 19.254 5.2123s14.139-6.8692 25.342-3.2023c6.6501 2.1768 7.6062 6.4742 9.5364 12.079" fill="none" stroke="#000" stroke-linecap="round" stroke-width="2.2346"/>
<path d="m348.96 57.271c6.5354 0.98959 10.326 5.8276 13.009 13.19 1.9881 5.455-0.67769 10.575 1.6071 17.974 2.2848 7.3991 3.976 6.5312 7.2588 14.641 2.0251 5.0028 0.79577 8.6278-2.8098 15.864" fill="none" stroke="#000" stroke-linecap="round" stroke-width="2.2346"/>
<path d="m357.97 152.83c1.044 4.8132 1.1468 13.038-6.195 19.005-5.8066 4.7189-11.333 3.0768-17.664 7.5362-6.331 4.4595-8.1417 10.809-15.091 14.165-6.7014 3.2362-11.83 1.4349-16.686-1.9652" fill="none" stroke="#000" stroke-linecap="round" stroke-width="2.2346"/>
<path d="m267.8 193.93c-5.6612 2.3667-11.105 3.3454-15.878-0.58486-4.482-3.6907-9.6244-9.0982-15.822-13.741-6.1976-4.643-10.644-2.9207-17.835-10.227-3.786-3.8466-3.8582-11.104-2.1252-16.773" fill="none" stroke="#000" stroke-linecap="round" stroke-width="2.2346"/>
<path d="m204.08 121.65c-4.0003-4.6527-9.3378-8.3926-6.2368-18.895 1.6441-5.5683 6.1628-9.193 8.6635-16.522 2.5006-7.329 0.44586-12.771 4.9265-20.012 3.7165-6.006 8.9793-7.2666 14.906-7.3703" fill="none" stroke="#000" stroke-linecap="round" stroke-width="2.2346"/>
</g>
</g>
<g>
<path d="m1.5 1.5v458.87c0 166.31 134.31 301.13 300 301.13 165.69 0 300-134.82 300-301.13v-458.87h-600z" fill="url(#a)"/>
<path d="m1.5 1.5v458.87c0 166.31 134.31 301.13 300 301.13 165.69 0 300-134.82 300-301.13v-458.87h-600z" fill="none" stroke="#000" stroke-width="3"/>
</g>
</svg>
